svg/racing_helmet.svg

<svg xmlns="http://www.w3.org/2000/svg" viewBox="0 0 24 24"><path d="M2.2 11.2c-.2 2.4.5 4.4 2 6.2S7.7 20 10.1 20h10c.5 0 1-.2 1.4-.6s.6-.9.6-1.4v-.8c0-.6-.1-1.3-.2-2.2h-8.2c-1 0-1.8-.4-2.5-1.1s-1.1-1.6-1.1-2.5c0-1.6.7-2.7 2.2-3.3L17.1 6c-1.7-1.2-3.7-1.9-6-2-2.2-.2-4.2.5-6 1.9S2.4 9 2.2 11.2m9.9.2c0 .4.2.8.5 1.1s.7.5 1.1.5h7.8c-.6-2.2-1.5-4-2.8-5.4l-5.6 2.3c-.7.2-1 .7-1 1.5"/></svg>

<?xml version="1.0" encoding="UTF-8"?><!DOCTYPE svg PUBLIC "-//W3C//DTD SVG 1.1//EN" "http://www.w3.org/Graphics/SVG/1.1/DTD/svg11.dtd"><svg xmlns="http://www.w3.org/2000/svg" xmlns:xlink="http://www.w3.org/1999/xlink" version="1.1" id="mdi-racing-helmet" width="24" height="24" viewBox="0 0 24 24"><path d="M2.2,11.2C2,13.6 2.7,15.6 4.2,17.4C5.7,19.2 7.7,20 10.1,20H20.1C20.6,20 21.1,19.8 21.5,19.4C21.9,19 22.1,18.5 22.1,18V17.2C22.1,16.6 22,15.9 21.9,15H13.7C12.7,15 11.9,14.6 11.2,13.9C10.5,13.2 10.1,12.3 10.1,11.4C10.1,9.8 10.8,8.7 12.3,8.1L17.1,6C15.4,4.8 13.4,4.1 11.1,4C8.9,3.8 6.9,4.5 5.1,5.9C3.3,7.3 2.4,9 2.2,11.2M12.1,11.4C12.1,11.8 12.3,12.2 12.6,12.5C12.9,12.8 13.3,13 13.7,13H21.5C20.9,10.8 20,9 18.7,7.6L13.1,9.9C12.4,10.1 12.1,10.6 12.1,11.4Z" /></svg>
